X:1
T:Bury Me Not on the Lone Prairie
M:4/4
L:1/4
K:C
 z C F/2F/2 A| c4-| c d/2c/2 A F| A4-| A F F A| c4-| cd/2-c/2 A F|\
 G4-| G C/2C/2 D F| G4-| G A/2G/2 F D| F4-| F C/2C/2 D F| G4-| G A/2G/2 F D|\
 F4-| F z3|||
